!!!COM: Music21
!!!OTL: hornpipe_Jacksons-Return
!!!OMV: hornpipe_Jacksons-Return
**kern
*clefG2
*k[f#c#]
*D:
*M4/4
=1
12aL
12b
12cc#J
=||
4dd
4d
4.d
8e
=
8f#L
8aJ
4f#
4.d
8e
=
4f#
4a
8aL
8gJ
4f#
=
4g
4e
4e
12aL
12b
12cc#J
=
4dd
4d
4.d
8e
=
8f#L
8aJ
4f#
4.d
8e
!!linebreak:original
=
4f#
4a
8aL
8gJ
4f#
=
2e
2d
=||
4dd
4d
4.d
8e
=
8f#L
8aJ
4f#
4.d
8e
=
4f#
4a
8aL
8gJ
4f#
=
4g
4e
4e
12aL
12b
12cc#J
=
4dd
4d
4.d
8e
!!linebreak:original
=
8f#L
8aJ
4f#
4.d
8e
=
4f#
4a
8aL
8gJ
4f#
=
2e
2d
=||
8ddL
8cc#J
4dd
8eeL
8ddJ
8eeL
8ff#J
=
8ggL
8ff#J
8eeL
8ff#J
4dd
4a
=
8bL
8cc#J
8ddL
8bJ
4a
4f#
=
4g
4e
4e
4d
!!linebreak:original
=
8ddL
8cc#J
4dd
8eeL
8ddJ
8eeL
8ff#J
=
8ggL
8ff#J
8eeL
8ff#J
4dd
4a
=
8bL
8cc#J
8ddL
8bJ
4a
4f#
=
2e
2d
=||
*M4/4
12aL
12b
12cc#J
=||
4dd
4d
4.d
8e
=
8f#L
8aJ
4f#
4.d
8e
!!linebreak:original
=
4f#
4a
8aL
8gJ
4f#
=
4g
4e
4e
12aL
12b
12cc#J
=
4dd
4d
4.d
8e
=
8f#L
8aJ
4f#
4.d
8e
=
4f#
4a
8aL
8gJ
4f#
=
2e
2d
=||
4dd
4d
4.d
8e
!!linebreak:original
=
8f#L
8aJ
4f#
4.d
8e
=
4f#
4a
8aL
8gJ
4f#
=
4g
4e
4e
12aL
12b
12cc#J
=
4dd
4d
4.d
8e
=
8f#L
8aJ
4f#
4.d
8e
=
4f#
4a
8aL
8gJ
4f#
=
2e
2d
!!linebreak:original
=||
8ddL
8cc#J
4dd
8eeL
8ddJ
8eeL
8ff#J
=
8ggL
8ff#J
8eeL
8ff#J
4dd
4a
=
8bL
8cc#J
8ddL
8bJ
4a
4f#
=
4g
4e
4e
4d
=
8ddL
8cc#J
4dd
8eeL
8ddJ
8eeL
8ff#J
=
8ggL
8ff#J
8eeL
8ff#J
4dd
4a
!!linebreak:original
=
8bL
8cc#J
8ddL
8bJ
4a
4f#
=
2e
2d
=||
*-
